X: 252
T:Bunratty Boys
C:Traditional
N:Play 5 times through
Z:Gordon Turnbull, Edinburgh
R:Slide
M:12/8
L:1/8
K:Amix
e3 efe d2 f a2 f | e3 efe d2 B B2 A |\
e3 efe d2 f a2 f |  efe f2 e d3 d3:||
A2 a f2 a A2 a f2 a | efe f2 e d2 B B2 A |\
A2 a f2 a A2 a f2 a | efe f2 e d3 d3 :||

